!!!OTL: Itsy, Bitsy Spider
!!!COM: unknown
!!!ODT: unknown
!!!YOR: The Folksong Fake Book
!!!YOY: 2000
!!!AST: Children's song
!!!YEC: Brian Luke, 2001
**kern	**harm
*k[f#c#g#d#]	*k[f#c#g#d#]
*M6/8	*M6/8
*E:	*E:
*>A	*>A
=1	=1
4e	I
8e	.
4e	.
8f#	.
=2	=2
4.g#	.
4g#	.
8g#	.
=3	=3
4f#	V
8e	.
4f#	.
8g#	.
=4	=4
4.e	I;
4.r	.
*>B	*>B
=5	=5
4.g#	I
4g#	.
8a	.
=6	=6
4.b	.
4.b	.
=7	=7
4a	V
8g#	.
4a	.
8b	.
=8	=8
4.g#	I;
4.r	.
*>A'	*>A'
=9	=9
4.e	I
4e	.
8f#	.
=10	=10
4.g#	.
4.g#	.
=11	=11
4f#	V
8e	.
4f#	.
8g#	.
=12	=12
4.e	I;
4B	.
8B	.
*>A	*>A
=13	=13
4e	I
8e	.
4e	.
8f#	.
=14	=14
4.g#	.
4g#	.
8g#	.
=15	=15
4f#	V
8e	.
4f#	.
8g#	.
=16	=16
2.e	I;
*-	*-
